!!!COM: Bach, Johann Sebastian
!!!OPR: Joh. Seb. Bachs vierstimmige Choralgesänge
!!!XEN: Four-part Chorales
!!!OTL: 129. Mit Fried' und Freud' ich fahr' dahin
!!!SCT: BWV 382
!!!SCA: Thematisch-systematisches Verzeichnis der musikalischen Werke Johann Sebastian Bach: Bach-Werke-Verzeichnis (Schmieder)
!!!YOR: Bach Gesellschaft Edition xxxix
!!!ENC: Steven Rasmussen
!!!CDT: 1685/3//-1750/7/28/
!!!OCY: Deutschland
!!!YEC: Copyright (c) 1994, 2000 Center for Computer Assisted Research in the Humanities
!!!YEM: Rights to all derivative editions reserved
!!!YEN: United States of America
**kern	**silbe	**kern	**silbe	**kern	**silbe	**kern	**silbe
*I:[SOPRANO]	*I:[SOPRANO]	*I:[ALTO]	*I:[ALTO]	*I:[TENORE]	*I:[TENORE]	*I:[BASSO]	*I:[BASSO]
*clefG2	*	*clefG2	*	*clefGv2	*	*clefF4	*
*k[]	*	*k[]	*	*k[]	*	*k[]	*
*a:	*	*a:	*	*a:	*	*a:	*
*M4/4	*	*M4/4	*	*M4/4	*	*M4/4	*
4d	Mit	4A	.	8FL	.	8DL	.
.	.	.	.	8GJ	.	8EJ	.
=1	=1	=1	=1	=1	=1	=1	=1
4a	Fried'	4d	.	4A	.	8FL	.
.	.	.	.	.	.	8EJ	.
4a	und	4f	.	8dL	.	8FL	.
.	.	.	.	8cJ	.	8DJ	.
4g	Freud'	4e	.	4B	.	8EL	.
.	.	.	.	.	.	8DJ	.
4dd	ich	8f#L	.	8AL	.	8CL	.
.	.	8g#J	.	8BJ	.	8BBJ	.
=2	=2	=2	=2	=2	=2	=2	=2
4cc	fahr'	4.a	.	8cL	.	8AAL	.
.	.	.	.	16dL	.	8CJ	.
.	.	.	.	16eJJ	.	.	.
4b	da-	.	.	8fL	.	8DL	.
.	.	8g#	.	8eJ	.	8EJ	.
4a;	-hin	4e;	.	4c;	.	4AA;	.
4cc	in	4a	.	4e	.	4A	.
=3	=3	=3	=3	=3	=3	=3	=3
4b	Got-	8aL	.	8fL	Got-	8DL	Got-
.	.	8g#J	.	16eL	.	8EJ	.
.	.	.	.	16dJJ	.	.	.
4a	-tes	4a	.	16cLL	-tes	8FL	-tes
.	.	.	.	16BJJ	.	.	.
.	.	.	.	[8A	Wil-	8EJ	.
2b	Wil-	4f	.	8AL]	.	8DL	.
.	.	.	.	16dL	.	8BBJ	.
.	.	.	.	16BJJ	.	.	.
.	.	8eL	.	4G#	.	4E	.
.	.	8dJ	.	.	.	.	.
=4	=4	=4	=4	=4	=4	=4	=4
2.a;	-le,	2.c;	.	2.A;	-le,	2.AA;	.
4b	ge-	4g	.	4d	.	8GL	.
.	.	.	.	.	.	8FJ	.
=5	=5	=5	=5	=5	=5	=5	=5
4cc	-trost	4g	.	4e	.	8EL	.
.	.	.	.	.	.	8FJ	.
4b	ist	4g	.	4d	.	8GL	.
.	.	.	.	.	.	8FJ	.
4cc	mir	4g	.	4.c	.	8EL	.
.	.	.	.	.	.	8CJ	.
4a	mein	4f	.	.	.	8FL	.
.	.	.	.	8d	.	8DJ	.
=6	=6	=6	=6	=6	=6	=6	=6
8gL	Herz	8eL	.	8c#L	.	8B-L	.
8fJ	.	8dJ	.	8dJ	.	8GJ	.
4e	und	4c#	.	8AL	.	4A	.
.	.	.	.	8GJ	.	.	.
4d;	Sinn,	4A;	.	4F;	.	4D;	.
[4a	sanft	8eL	.	(4A	.	8C#L	.
.	.	8dJ	.	.	.	8BBJ	.
=7	=7	=7	=7	=7	=7	=7	=7
4a]	.	8eL	.	8G	.	8C#L	.
.	.	8c#J	.	4F)	.	8AAJ	.
4g	und	8dL	.	.	.	8BBL	.
.	.	8eJ	.	8E	.	8C#J	.
8fL	stil-	4A	.	2F	.	8DL	.
8eJ	.	.	.	.	.	8Cn	.
4d	.	4B-	.	.	.	8D	.
.	.	.	.	.	.	8EJ	.
=8	=8	=8	=8	=8	=8	=8	=8
2c;	-le.	2A;	.	2F;	.	2F;	.
4a	Wie	4e	.	4A	.	4C#	.
4f	Gott	4d	.	4A	.	4D	.
=9	=9	=9	=9	=9	=9	=9	=9
4cc	mir	(8c	.	4G	.	4E	.
.	.	4g)	.	.	.	.	.
4a	ver-	.	.	8cL	.	4F	.
.	.	8f	.	8dJ	.	.	.
8gL	-hei-	8eL	.	8eL	.	8GL	.
8fJ	.	8dJ	.	8fJ	.	8AJ	.
4g	-ssen	8c#L	.	8eL	.	4B-	.
.	.	8dJ	.	8dJ	.	.	.
=10	=10	=10	=10	=10	=10	=10	=10
4a;	hat,	4e;	.	4c#;	.	4A;	.
4g	der	4e	.	4A	.	4C#	.
8fL	Tod	8dL	.	8AL	.	4D	.
8eJ	.	8cJ	.	8GJ	.	.	.
4d	ist	4B	.	4F	.	4GG#	.
=11	=11	=11	=11	=11	=11	=11	=11
4c	mein	8AL	.	4E	mein	4.AA	mein
.	.	8BJ	.	.	.	.	.
4f	Schlaf	8c#L	.	2.A	Schlaf	.	.
.	.	8dJ	.	.	.	8BB	.
8e	wor-	8eL	wor-	.	.	8C#L	Schlaf
4d	.	8fJ	.	.	.	8DJ	.
.	.	[4g	.	.	.	4AA	wor-
8c#	.	.	.	.	.	.	.
=12	=12	=12	=12	=12	=12	=12	=12
1d;	-den.	4g]	.	4B-	wor-	1DD;	-den.
.	.	8f#L	.	8AL	.	.	.
.	.	8eJ	.	8GJ	.	.	.
.	.	2f#;	-den.	2A;	-den.	.	.
==|!	==|!	==|!	==|!	==|!	==|!	==|!	==|!
*-	*-	*-	*-	*-	*-	*-	*-
!!!RWG: Key is interpreted using the Humdrum key tool.
!!!END: 1994/07/18
!!!EMD: Converted from MuseData to Humdrum Dec 19, 2000, by Andreas Kornstaedt using muse2kern.
!!!EED: Craig Stuart Sapp
!!!EEV: 2024/03/31
!!!ONB: Some non-unicode characters
